X: 252
T: A Mabou Strathspey
R: strathspey
M: 4/4
K: Dmajor
B|A>Bc3B A>F|E<F G>A B<E E>B|A>Bc3B A>F|A<B d>e f<d d>B:|
|:d>e f>g a>b a>f|d<e f>a b<e e>f|1 d>e f>g a>b a>f|e/f/g d>e f<d d>e:|
[2 (3fgf (3edc d>B A>F|<B d>e f<d d>B||

